!!!!SEGMENT: pl-wnifc--6432-n--003_nowakowski-jozef--mazur-no-3.krn
!!!cenid: 18xx:3926
!!!COM: Nowakowski, Józef
!!!COM-rismID: pe175316
!!!CDT: 1880/09/16-1865/08/27
!!!CNT: Polish
!!!OTL: Mazur No. 3
!!!PDT: 1825
!!!AGN:
!!!YEC: Copyright 2022 Narodowy Instytut Fryderyka Chopina (https://polishscores.org)
!!!YEM: License CC-BY-4.0 (https://creativecommons.org/licenses/by/4.0)
!!!SMS-siglum: PL-Wnifc
!!!SMS-shelfmark: 6432/n
!!!SMS-shelfwork: 003 W
!!!SMS-variant:
!!!SMS-altvar:
!!!NIFC-rismSourceID: 1001134716
!!!NIFC-rismChildID: 1001134733
!!!NIFC-islandoraID: nifc:212700
!!!URL-pdf-islandora: https://repozytorium.nifc.pl/islandora/object/nifc%3A212700/datastream/PDF/view
!!!URL-scan: https://polish.musicsources.pl/pl/lokalizacje/galeria/druki-muzyczne/16851 @EN{Scan on Polish Music Sources Website} @PL{Skany w portalu Dziedzictwo Muzyki Polskiej w otwartym dostępie}
!!!IIIF:
!!!ONB-nifc: UWAGA: w źródle 5 Mazurów (001-005), 4 Anglezy (006-009), 2 Walce (010-011) i Fantaisie Valse (012).
!!!AIN: 1 piano
!!!key: F
**kern	**kern	**dynam
*part1	*part1	*
*staff2	*staff1	*
*>[A,A,B,B1,B,B2]	*>[A,A,B,B1,B,B2]	*
*>A	*>A	*
*I"Piano-forté.	*I"Piano-forté.	*
*I'	*I'	*
*Ipiano	*Ipiano	*
*ICklav	*ICklav	*
*clefF4	*clefG2	*
*k[b-]	*k[b-]	*
*F:	*F:	*
*M3/8	*M3/8	*
=1	=1	=1
!	!LO:TURN:facc	!LO:DY:t=for
8FL 8FF\	8ccsSSs\L	f
8c 8A 8F\	8ff'\	.
8cJ 8A 8F\	8aaJ 8ff'\	.
=2	=2	=2
8FL 8FF\	(8.cccL 8.aa\	.
8c 8A 8F\	.	.
.	16bbnL 16gg#X\	.
8cJ 8A 8F\	16ddd 16bb-X\	.
.	16cccJJ 16aa\)	.
=3	=3	=3
*rep	*	*
8FL 8FF\	8cccSSs\L	.
8c 8A 8F\	(16fff\L	.
.	16aa 16ff\	.
8cJ 8A 8F\	16bb-y 16gg\	.
.	16bbnJJ 16gg#X\)	.
*Xrep	*	*
=4	=4	=4
*rep	*	*
8FL 8FF\	(8.cccL 8.aa\	.
8c 8A 8F\	.	.
.	16bbnL 16gg#X\	.
8cJ 8A 8F\	16ddd 16bb-X\	.
.	16cccJJ 16aa\)	.
*Xrep	*	*
=5	=5	=5
8cL 8C\	8bb-\L	.
8e 8c 8B- 8G\	16bb-\L	.
.	16ddd\	.
8eJ 8c 8B- 8G\	16ccc\	.
.	16bb-\JJ	.
=6	=6	=6
8FL 8FF\	16.aa\LL	.
.	32ee\JJk	.
8f 8c 8A\	8.ffT\L	.
8fJ 8c 8A\	.	.
.	16aa\Jk	.
=7	=7	=7
8cL 8C\	16ccc\LL	.
.	(16qqcc/LL	.
.	16qqdd/JJ)	.
.	16cc\	.
8e 8c 8B- 8G\	16bn\	.
.	16cc\	.
8eJ 8c 8B- 8G\	16dd\	.
.	16ee\JJ	.
=8	=8	=8
8FL 8FF\	16ff\LL	.
.	16ee\	.
8f 8c 8A\	16ff\	.
.	16aa\	.
8fJ 8c 8A\	16ddd\	.
.	16ccc\JJ	.
=9	=9	=9
8cL 8C\	16bb-\LL	.
.	16aa\	.
8c 8B- 8G\	16gg\	.
.	16ddd\	.
8cJ 8B- 8G\	16ccc\	.
.	16bb-\JJ	.
=10	=10	=10
*^	*	*
8F\L	4F/	(32aa\LLL	.
.	.	32fff\JJJ)	.
.	.	16r	.
8c 8A\	.	8.ffT\L	.
8cJ 8A\	8ryy	.	.
.	.	16qqee/LL	.
.	.	16qqff/JJ	.
.	.	16aa\Jk	.
*v	*v	*	*
!!LO:LB:g=original
=11	=11	=11
8C\L	(16ff#X\LL	.
.	16gg\	.
8c 8B- 8G\	16bb-\	.
.	16cc\	.
8cJ 8B- 8G\	16dd\	.
.	16ee\JJ)	.
=12	=12	=12
!LO:TX:t=P:problem=mixed beam	!	!
8dL 8A 8F\	(16gg\LL	.
.	16ff\JJ)	.
8FF/J	4ff\	.
8r	.	.
=13:|!|:	=13:|!|:	=13:|!|:
*>B	*>B	*
8G: 8D: 8BBn: 8GG:\	8gg: 8dd: 8b: 8g:\	.
8fL 8Bn 8G\	(16dd\LL	.
.	16ff\	.
8fJ 8B 8G\	16ee\	.
.	16dd\JJ)	.
=14	=14	=14
8cL 8C\	8cc\L	.
.	8qcc	.
8e 8c 8G\	8ccc\	.
8eJ 8c 8G\	16bbn\L	.
.	16aa\JJ	.
=15	=15	=15
8GL 8GG\	16gg\LL	.
.	16bbn\	.
8f 8d 8Bn 8G\	16ddd\	.
.	16fff\	.
8fJ 8d 8B 8G\	16eee\	.
.	16ddd\JJ	.
=16	=16	=16
8cL 8C\	16ccc\LL	.
.	16ddd\	.
8e 8c 8G\	16eee\	.
.	16bbn\	.
8eJ 8c 8G\	16ccc\	.
.	16aa\JJ	.
=17	=17	=17
!	!LO:TUP:a:problem=klamra łukowa	!
8GG\L	24gg\LL	.
.	24aa\	.
.	24gg\JJ	.
8G 8F 8D\	16dd\LL	.
.	16ff\	.
8GJ 8F 8D\	16ee\	.
.	16dd\JJ	.
=18	=18	=18
8C\L	16cc\LL	.
.	16ee\	.
8G 8E\	16gg\	.
.	16ccc\	.
8GJ 8E\	16bbn\	.
.	16aa\JJ	.
=19	=19	=19
8GG\L	16ff#X\LL	.
.	16gg\	.
8f 8d 8G\	16bbn\	.
.	16ddd\	.
8fJ 8d 8G\	16fff\	.
.	16bb\JJ	.
=20	=20	=20
!LO:TX:t=1.° fois	!	!
*>B1	*>B1	*
!LO:TX:t=P:problem=mixed beam	!	!
8eL 8c\	16ddd\LL	.
.	16ccc\JJ	.
8C/J	4ccc\	.
8r	.	.
=21	=21	=21
!LO:TX:t=2.° fois	!	!
*>B2	*>B2	*
*rep	*	*
!LO:TX:t=P:problem=mixed beam	!	!
8eL 8c\	16ccc\LL	.
.	16bbn\	.
8C/J	16ddd\	.
.	16ccc\	.
8r	16bb-X\	.
.	16gg\JJ	.
*Xrep	*	*
==:|!	==:|!	==:|!
*-	*-	*-
!!!system-decoration: {(*)}
!!!ENC: Berenika Jozajtis
!!!END: 2022-07-27
!!!ENC: Andrzej Kubiczek
!!!END: 2022-08-24
